public/icons/Misskey-Dark.svg

<svg width="256" height="256" viewBox="0 0 256 256" fill="none" xmlns="http://www.w3.org/2000/svg">
<rect width="256" height="256" rx="60" fill="#242938"/>
<path d="M50.2317 54C47.2125 54 44.3367 54.5132 41.6053 55.5392C36.7172 57.2981 32.6914 60.4498 29.5286 64.9934C26.5094 69.3905 25 74.3006 25 79.7237V176.024C25 183.059 27.4438 189.142 32.332 194.272C37.3638 199.255 43.3307 201.747 50.2317 201.747C57.2765 201.747 63.2425 199.255 68.1306 194.272C73.1625 189.142 75.6786 183.059 75.6786 176.024V158.512C75.7329 154.719 79.5649 155.714 81.5017 158.512C85.129 164.916 92.8191 170.416 101.773 170.385C110.726 170.353 118.163 165.84 122.044 158.512C123.514 156.744 127.658 153.732 128.083 158.512V176.024C128.083 183.059 130.526 189.142 135.415 194.272C140.446 199.255 146.413 201.747 153.314 201.747C160.359 201.747 166.325 199.255 171.213 194.272C176.245 189.142 178.761 183.059 178.761 176.024V79.7237C178.761 74.3006 177.18 69.3905 174.017 64.9934C170.998 60.4498 167.044 57.2982 162.156 55.5392C159.281 54.5132 156.405 54 153.53 54C145.766 54 139.225 57.0785 133.905 63.2347L108.299 93.7861C107.724 94.2258 105.819 97.5875 101.772 97.5875C97.7258 97.5875 96.0368 94.2258 95.4616 93.7861L69.6395 63.2347C64.4638 57.0786 57.9942 54 50.2305 54H50.2317ZM209.787 54C203.748 54 198.573 56.1988 194.26 60.5962C190.09 64.8467 188.006 70.0504 188.006 76.2065C188.006 82.3625 190.09 87.6391 194.26 92.0361C198.573 96.2866 203.748 98.4125 209.787 98.4125C215.825 98.4125 221.001 96.2866 225.314 92.0361C229.627 87.6391 231.784 82.3625 231.784 76.2065C231.784 70.0504 229.627 64.8467 225.314 60.5962C221.001 56.1992 215.825 54 209.787 54ZM210.002 102.809C203.964 102.809 198.788 105.008 194.475 109.405C190.162 113.802 188.006 119.079 188.006 125.235V179.54C188.006 185.696 190.162 190.973 194.475 195.37C198.788 199.62 203.964 201.746 210.002 201.746C216.04 201.746 221.144 199.62 225.314 195.37C229.627 190.973 231.784 185.696 231.784 179.54V125.235C231.784 119.079 229.627 113.802 225.314 109.405C221.144 105.008 216.04 102.809 210.002 102.809V102.809Z" fill="#86B300"/>
</svg>

<svg xmlns="http://www.w3.org/2000/svg" width="256" height="256" fill="none"><rect width="256" height="256" fill="#242938" rx="60"/><path fill="#86B300" d="M50.232 54q-4.53 0-8.627 1.54-7.332 2.638-12.076 9.453-4.53 6.597-4.529 14.73v96.301q0 10.553 7.332 18.248 7.548 7.475 17.9 7.475 10.566 0 17.899-7.475 7.547-7.695 7.548-18.248v-17.512c.054-3.793 3.886-2.798 5.823 0 3.627 6.404 11.317 11.904 20.271 11.873 8.953-.032 16.39-4.545 20.271-11.873 1.47-1.768 5.614-4.78 6.039 0v17.512q0 10.553 7.332 18.248 7.547 7.475 17.899 7.475 10.567 0 17.899-7.475 7.548-7.695 7.548-18.248v-96.3q0-8.135-4.744-14.73-4.529-6.816-11.861-9.455Q157.843 54 153.53 54q-11.645 0-19.625 9.235l-25.606 30.551c-.575.44-2.48 3.802-6.527 3.802-4.046 0-5.735-3.362-6.31-3.802L69.639 63.235Q61.877 54 50.232 54m159.555 0q-9.058 0-15.527 6.596-6.254 6.375-6.254 15.61t6.254 15.83q6.469 6.375 15.527 6.376 9.057 0 15.527-6.376 6.47-6.596 6.47-15.83t-6.47-15.61Q218.844 54 209.787 54m.215 48.809q-9.057 0-15.527 6.596t-6.469 15.83v54.305q0 9.234 6.469 15.83 6.47 6.376 15.527 6.376t15.312-6.376q6.47-6.596 6.47-15.83v-54.305q0-9.234-6.47-15.83-6.255-6.596-15.312-6.596"/></svg>
